X: 27
T:I'll Go No More To Yon Town. HS.27
M:C|
L:1/8
Q:200
S:Henry Stables MS,Cumbria,late19thC
R:reel
O:Walthwaite,nr.Ambleside.
A:England
N:Covered throughout in seeming bowing marks of a basic hack bowing
N:pattern..cgp
Z:vmp.Chris Partington
K:A
c|Aaae c2Ae|ceAc .d.B.B.g|agaec2Ae|ceBd .c.A.A:|!
e|cAeA fAeA|cAeA .d.B.B.d|cAeA fAeA|ceBd .c.A.A.e|!
cAeA fAeA|cAeA (f/e/d/c/ Bd|cAeA fAeA|ceBd .c.A.A||
